synths/sREN.svg

<svg width="480" height="480" viewBox="0 0 480 480" fill="none" xmlns="http://www.w3.org/2000/svg"><mask id="mask0-062624" maskUnits="userSpaceOnUse" x="0" y="0" width="480" height="480"><circle cx="240" cy="240" r="240" fill="url(#paint0_linear-349537)"/></mask><g mask="url(#mask0-062624)"><circle cx="240" cy="240" r="240" fill="#31D8A4"/><circle cx="240" cy="240" r="208" fill="#fff"/></g><circle cx="240" cy="240" r="184" fill="#0E052F"/><path d="M240 424c101.62 0 184-82.38 184-184S341.62 56 240 56 56 138.38 56 240s82.38 184 184 184z" fill="#001B3A"/><path d="M159.799 166.814l-2.622-4.301L125 181.028v-2.806L237.045 113.5l2.415 1.495 5.083 2.806 5.036 2.99-68.655 39.652-2.61-4.301-18.515 10.672zm0 40.768l-2.622-4.301L125 221.796v-3.002l147.384-84.905 2.461 1.496 5.037 2.794 5.048 2.99-68.85 39.675-2.415-4.312-53.866 31.05zm0 20.378l-2.622-4.462L125 242.174v-2.967l164.979-95.232 2.415 1.495 5.083 3.002 5.037 2.828-68.85 39.641-2.415-4.289-71.45 41.308zm0 20.217l-2.622-4.301L125 262.391v-2.795l182.562-105.328 2.415 1.322 5.06 2.979 5.061 2.817-68.265 39.48-2.449-4.324-89.585 51.635zm0 20.378l-2.622-4.29L125 282.78v-2.806l200.146-115.575 2.633 1.461 4.83 2.829 5.084 2.99-68.276 39.479-2.45-4.496-107.168 61.893zm185.53-92.576l3.749 2.243v7.302l-79.661 45.817-2.45-4.301-107.168 61.904-2.622-4.301L125 303.158v-2.794l217.741-125.879 2.588 1.494zM138.835 315.521l-2.415-1.495 212.658-122.705v14.386l-80.063 46.391-2.599-4.473-106.985 61.904-2.633-4.301-17.963 10.293zm127.581-47.507l-89.056 51.428-2.6-4.289-18.331 10.66-2.415-1.495 195.064-112.619v14.421l-80.063 46.391-2.599-4.497zm-92.403 67.896l-2.45-1.495 177.515-102.499v14.582l-80.063 46.195-2.599-4.301-71.473 41.343-2.415-4.485-18.515 10.66zm17.756 10.086l-2.622-1.288 159.931-92.414v14.593l-80.063 46.184-2.599-4.289-53.878 31.05-2.426-4.301-18.343 10.465zm14.973 8.797l142.336-82.11v14.582l-80.063 46.23-2.599-4.335-36.295 20.964-2.415-4.496-18.342 10.66-2.622-1.495zm20.205 11.592l-2.449-1.299 124.58-72.025v14.594l-80.063 46.218-2.599-4.496-18.539 10.833-2.587-4.29-18.343 10.465zm40.4-235.497l-68.828 39.675-2.449-4.301-36.271 20.93-2.622-4.289L125 201.418V198.6l129.628-75.026 2.622 1.495 5.048 3.013 5.049 2.795v.011z" fill="#fff"/><defs><linearGradient id="paint0_linear-349537" x1="240" y1="0" x2="240" y2="701.818" gradientUnits="userSpaceOnUse"><stop stop-color="#08021E"/><stop offset="1" stop-color="#1F0777"/></linearGradient></defs></svg>

<svg width="480" height="480" viewBox="0 0 480 480" fill="none" xmlns="http://www.w3.org/2000/svg">
<mask id="mask0-062624" mask-type="alpha" maskUnits="userSpaceOnUse" x="0" y="0" width="480" height="480">
<circle cx="240" cy="240" r="240" fill="url(#paint0_linear-349537)"/>
</mask>
<g mask="url(#mask0-062624)">
<circle cx="240" cy="240" r="240" fill="#31D8A4"/>
<circle cx="240" cy="240" r="208" fill="white"/>
</g>
<circle cx="240" cy="240" r="184" fill="#0E052F"/>
<path d="M240 424C341.62 424 424 341.62 424 240C424 138.38 341.62 56 240 56C138.38 56 56 138.38 56 240C56 341.62 138.38 424 240 424Z" fill="#001B3A"/>
<path d="M159.799 166.814L157.177 162.513L125 181.028V178.222L237.045 113.5L239.46 114.995L244.543 117.801L249.579 120.791L180.924 160.443L178.314 156.142L159.799 166.814ZM159.799 207.582L157.177 203.281L125 221.796V218.794L272.384 133.889L274.845 135.385L279.882 138.179L284.93 141.169L216.08 180.844L213.665 176.532L159.799 207.582ZM159.799 227.96L157.177 223.498L125 242.174V239.207L289.979 143.975L292.394 145.47L297.477 148.472L302.514 151.3L233.664 190.941L231.249 186.652L159.799 227.96ZM159.799 248.177L157.177 243.876L125 262.391V259.596L307.562 154.268L309.977 155.59L315.037 158.569L320.098 161.386L251.833 200.866L249.384 196.542L159.799 248.177ZM159.799 268.555L157.177 264.265L125 282.78V279.974L325.146 164.399L327.779 165.86L332.609 168.689L337.693 171.679L269.417 211.158L266.967 206.662L159.799 268.555ZM345.329 175.979L349.078 178.222V185.524L269.417 231.341L266.967 227.04L159.799 288.944L157.177 284.643L125 303.158V300.364L342.741 174.485L345.329 175.979ZM138.835 315.521L136.42 314.026L349.078 191.321V205.707L269.015 252.098L266.416 247.625L159.431 309.529L156.798 305.228L138.835 315.521ZM266.416 268.014L177.36 319.442L174.76 315.153L156.429 325.813L154.014 324.318L349.078 211.699V226.12L269.015 272.511L266.416 268.014ZM174.013 335.91L171.563 334.415L349.078 231.916V246.498L269.015 292.693L266.416 288.392L194.943 329.735L192.528 325.25L174.013 335.91ZM191.769 345.996L189.147 344.708L349.078 252.294V266.887L269.015 313.071L266.416 308.782L212.538 339.832L210.112 335.531L191.769 345.996ZM206.742 354.793L349.078 272.683V287.265L269.015 333.495L266.416 329.16L230.121 350.124L227.706 345.628L209.364 356.288L206.742 354.793ZM226.947 366.385L224.498 365.086L349.078 293.061V307.655L269.015 353.873L266.416 349.377L247.877 360.21L245.29 355.92L226.947 366.385ZM267.347 130.888L198.519 170.563L196.07 166.262L159.799 187.192L157.177 182.903L125 201.418V198.6L254.628 123.574L257.25 125.069L262.298 128.082L267.347 130.877V130.888Z" fill="white"/>
<defs>
<linearGradient id="paint0_linear-349537" x1="240" y1="0" x2="240" y2="701.818" gradientUnits="userSpaceOnUse">
<stop stop-color="#08021E"/>
<stop offset="1" stop-color="#1F0777"/>
</linearGradient>
</defs>
</svg>
